X:523
T:Iain MacPhail's Welcome To Shetland 
C:Joe Buchanan's Scottish Tome - Page 022.0
I:022 0
C:Ronald Jamisson
R:Reel
Z:Carl Allison
L:1/8
M:2/4
K:A
"E7"E2 |"A" A2 "A7"Bc | "D"d2 "Bm"F2 | "E7"G2 B>G |"A" A2 "A7"E2 |
"D"F2 "B7"B>c |"Bm" d"A"c "E"B"F#m"A |"B7" A2 G>A |"Bm" E2 "E7"D>G |
"F#m" A2 "C#"B"F#m"c |"Bm" d2 "D"F2 |"E" G2 "E#dim"B>G |"F#m" A2 "A7"E2 |
"D" F2 "B7"B>c |"Bm" dE "E7"cB |"A" A2 "D"A>B |"A" A2 |]
"E7"e2 |"A" a2 "A7"Aa |"D" f2 "Bm"d2 |"E7" e2 Ee |"A" c2 A2 |
"B7" b2 Bb |"E7" g2 e2 |"B7" f>g af |"E7" e^e fg |
"A" a2 "A7"Aa |"D" f2 "Bm7"d2 |"E7" e2 Ee |"A" c2 A2 |
"D" D2 "B7"B>c |"Bm7" dE "E7"cB |"A" A2 "D"A>B |"A" A2 |]

